X: 21
T: Qingmiao dili luole shuang
L: 1/8
M: 2/4
K: C
e e c c/ a/ [I:setbarnb 1]| 
d c c c/ e/ | 
G E C C/ G/ | 
D4 | 
e e c c/ a/ | 
d c c c/ e/ | 
G E C C/ A/ | 
G4 |]

@@@ Tune index: 8895
